X: 2914
T: Barrack Hill
R: slide
M: 12/8
K: Adorian
|:e2 A A2 B|e2 d B2 d|e2 A A2 B|G2 A B2 d|
e2 A A2 B|e2 d B2 d|e2 d g 2 B|A3 A3:|
|:e2 d efg|a2 b g2 e|d2 B d2 e|d2 B d2 g|
e2 d efg|a2 b g2 e|d2 B g2 B|A3 A3:|
|:e2 A A2 f|e2 d Bcd|e2 A A2 B|G2A Bcd|
e2 A A2 f|e2 d Bcd|e2 d g2 B|A3 A3:|
|:e2 d efg|a2 b g2 e|d2 e d2 B|d2 e dcB|
1 e2 d efg|a2 b g2 e|d2 B g2 B|A3 A3:|
2 e2 d e2 f|g2 a b2 a|g2 e d2 B|A2 a agf||

